X: 3
T: The Ruined Old Cottage In The Glen
R: reel
M: 4/4
L: 1/8
K: Dmaj
A || B2 AF DEFA | (3Bcd Ad Bdef | dBAF DEFA | (3Bcd AF FEEA || B2 AF DEFA | (3Bcd Ad Bdef | dBAF DEFA | (3Bcd AF FE E2 ||| Beed BddA | Beef gfed | Beed Bdef | dBAF FEEA || Beed BddA | Beef gfga | bgaf gfef | dBAF FE E2 ||


Tune 557	Setting 13521

